X: 20230
T: Joe Cassidy's
R: reel
M: 4/4
K: Gmajor
ge|dG3 eGfG|gedB AGEG|dG3 AGDC|B,DGA BGGe|
dG3 eGfG|gedB AGDC|BDGD EGBG|FAdc BGGA||
B2Bc dBGB|cBce dBGA|GABc dBGA|BAAG ABGA|
B2GB dBGB|cBce dBGA|Bdce dfeg|fadf gdef||
gG3 gGfg|aA3 agfe|d2fa gfed|ed^ce d2ef|
gG3 gGfg|aA3 agfe|d2fa gfed|ecAF G2||

